src/images_karasa_jaga_svg/cmd/sc_sendviabluetooth.svg

<svg height="16" width="16" xmlns="http://www.w3.org/2000/svg" xmlns:xlink="http://www.w3.org/1999/xlink"><linearGradient id="a"><stop offset="0" stop-color="#fff"/><stop offset="1" stop-color="#fff" stop-opacity="0"/></linearGradient><linearGradient id="b" gradientTransform="matrix(-1.1647706 0 0 -1.2298822 138.55051 140.97615)" gradientUnits="userSpaceOnUse" x1="48.800022" x2="59.752357" y1="16" y2="56.874668"><stop offset="0"/><stop offset="1" stop-opacity="0"/></linearGradient><linearGradient id="c" gradientTransform="matrix(1.1647706 0 0 1.2298822 -10.545321 -16.448768)" gradientUnits="userSpaceOnUse" x1="48.800022" x2="59.752357" xlink:href="#a" y1="16" y2="56.874668"/><radialGradient id="d" cx="48" cy="66.450142" gradientTransform="matrix(2.3094982 -.00000013 .00000017 2.9480005 -46.855918 -86.275163)" gradientUnits="userSpaceOnUse" r="23"><stop offset="0" stop-color="#2782e9"/><stop offset="1" stop-color="#193693"/></radialGradient><linearGradient id="e" gradientTransform="matrix(1.8355218 0 0 1.7363043 -.024298 -4.56702)" gradientUnits="userSpaceOnUse" x1="35.102802" x2="35.102802" xlink:href="#a" y1="6.854038" y2="34.885773"/><linearGradient id="f" gradientTransform="matrix(1.8742771 0 0 1.7363043 -30.478204 -20.561072)" gradientUnits="userSpaceOnUse" x1="62.339497" x2="62.339497" xlink:href="#a" y1="48" y2="-6.548237"/><filter id="g" color-interpolation-filters="sRGB" height="1.02034" width="1.029267" x="-.014633" y="-.01017"><feGaussianBlur stdDeviation=".53065801"/></filter><filter id="h" color-interpolation-filters="sRGB" height="1.020222" width="1.029514" x="-.014757" y="-.010111"><feGaussianBlur stdDeviation=".51112457"/></filter><filter id="i" color-interpolation-filters="sRGB" height="1.040235" width="1.059478" x="-.029739" y="-.020118"><feGaussianBlur stdDeviation=".98969349"/></filter><filter id="j" color-interpolation-filters="sRGB" height="1.02714" width="1.021512" x="-.010756" y="-.01357"><feGaussianBlur stdDeviation=".31905792"/></filter><g transform="scale(.125)"><path d="m64 1.3845247c-11.486867 0-22.919254 2.2494014-31.036441 11.7200543-8.106719 9.458443-12.479687 25.172131-12.479687 50.895421 0 25.723293 4.372968 41.43697 12.479687 50.89542 8.117187 9.47066 19.549574 11.72005 31.036441 11.72005 11.486861 0 22.919252-2.24939 31.03644-11.72005 8.10672-9.45845 12.47969-25.172127 12.47969-50.89542 0-25.723292-4.37297-41.436978-12.47969-50.895421-8.117188-9.4706529-19.549579-11.7200543-31.03644-11.7200543z" filter="url(#g)" opacity=".1"/><path d="m64 3.3378671c-11.233061 0-21.887706 2.167328-29.517174 11.0689399-7.629467 8.901612-12.045611 24.097757-12.045611 49.593193 0 25.49544 4.416144 40.69157 12.045611 49.59319 7.629468 8.90162 18.284113 11.06894 29.517174 11.06894 11.233056 0 21.887704-2.16732 29.517174-11.06894 7.629466-8.90162 12.045606-24.09775 12.045606-49.59319 0-25.495438-4.41614-40.691581-12.045606-49.593193-7.62947-8.9016119-18.284118-11.0689399-29.517174-11.0689399z" filter="url(#h)" opacity=".2"/><path d="m103.935 63.999998c0 50.600872-17.890889 59.034352-39.935 59.034352-22.044123 0-39.935-8.43348-39.935-59.034352 0-50.600867 17.890877-59.0343455 39.935-59.0343455 22.044111 0 39.935 8.4334785 39.935 59.0343455z" filter="url(#i)" opacity=".708"/><path d="m103.935 62.263694c0 50.600876-17.890889 59.034346-39.935 59.034346-22.044123 0-39.935-8.43347-39.935-59.034346 0-50.600867 17.890877-59.0343459 39.935-59.0343459 22.044111 0 39.935 8.4334789 39.935 59.0343459z" fill="url(#d)"/><path d="m64 3.2293481c-22.044123 0-39.935 8.4334799-39.935 59.0343479 0 50.600874 17.890877 59.034344 39.935 59.034344 22.044111 0 39.935-8.43347 39.935-59.034344 0-50.600868-17.890889-59.0343479-39.935-59.0343479zm0 2.550197c10.693959 0 19.657267 1.9526444 26.261603 9.6581929 6.604336 7.705549 11.123197 21.828747 11.123197 46.825958 0 24.997214-4.518861 39.120414-11.123197 46.825954-6.604336 7.70555-15.567644 9.65819-26.261603 9.65819-10.693966 0-19.657269-1.95264-26.261603-9.65819-6.604334-7.70554-11.1232-21.82874-11.1232-46.825954 0-24.997211 4.518866-39.120409 11.1232-46.825958 6.604334-7.7055485 15.567638-9.6581929 26.261603-9.6581929z" fill="#103876" opacity=".870968"/><path d="m64.005207 121.29804c22.044112 0 39.929793-8.43347 39.929793-59.034346 0-20.556604-2.9517-34.146046-7.935-43.045877 3.554674 8.77046 5.60546 21.028236 5.60546 38.126347 0 50.600886-17.885683 59.034356-39.929795 59.034356-13.088702 0-24.711517-2.98103-31.994794-15.98848 6.965179 17.18521 19.728955 20.908 34.324336 20.908z" fill="url(#b)" opacity=".2"/><path d="m56 15.901319v37.504174l-17.095299-15.836847-6.123687 5.751692 20.922603 19.382408-21.092705 19.53999 6.208738 5.672902 17.18035-15.915638v37.66175l30.363289-28.128126-20.582395-19.067247 20.497345-18.909669zm7.909765 17.964186 10.461302 9.848783-10.461302 9.691205zm0 37.425383 10.461302 9.927574-10.461302 9.691205z" fill="url(#f)" fill-rule="evenodd" stroke-width="1.803972"/><path d="m96.85541 38.027491a32.447748 30.693815 0 1 1 -64.895495 0 32.447748 30.693815 0 1 1 64.895495 0z" fill="url(#e)" opacity=".9"/><path d="m28.405761 60.527392c-.0052.584396 0 1.139095 0 1.736304 0 24.787748 4.515782 38.483814 10.689124 45.686504 6.173342 7.2027 14.437799 9.00708 24.905115 9.00708 10.467309 0 18.731772-1.80438 24.905115-9.00708 6.173343-7.20269 10.689126-20.898758 10.689126-45.686504 0-.597209.0056-1.151908 0-1.736304-.210737 23.671558-4.664516 36.921052-10.689126 43.950208-6.173343 7.20269-14.437806 9.00708-24.905115 9.00708-10.467316 0-18.731773-1.80439-24.905115-9.00708-6.024609-7.029156-10.478389-20.278649-10.689124-43.950208z" fill="#fff" filter="url(#j)" opacity=".25"/><path d="m64 3.2293481c-22.044123 0-39.929793 8.4334789-39.929793 59.0343459 0 20.556603 2.951704 34.146044 7.935 43.045886-3.554682-8.77047-5.605459-21.028247-5.605459-38.126358 0-50.600867 17.885671-59.0343455 39.929792-59.0343455 13.088691 0 24.711508 2.9810225 31.994791 15.9884685-6.965174-17.1852058-19.728964-20.9079969-34.324331-20.9079969z" fill="url(#c)" opacity="0"/></g></svg>

<?xml version="1.0" encoding="UTF-8" standalone="no"?>
<!-- Created with Inkscape (http://www.inkscape.org/) -->

<svg
   xmlns:dc="http://purl.org/dc/elements/1.1/"
   xmlns:cc="http://creativecommons.org/ns#"
   xmlns:rdf="http://www.w3.org/1999/02/22-rdf-syntax-ns#"
   xmlns:svg="http://www.w3.org/2000/svg"
   xmlns="http://www.w3.org/2000/svg"
   xmlns:xlink="http://www.w3.org/1999/xlink"
   xmlns:sodipodi="http://sodipodi.sourceforge.net/DTD/sodipodi-0.dtd"
   xmlns:inkscape="http://www.inkscape.org/namespaces/inkscape"
   version="1.0"
   width="128"
   height="128"
   id="svg2408"
   sodipodi:docname="sc_sendviabluetooth.svg"
   inkscape:version="0.92.3 (unknown)"
   inkscape:export-filename="/home/rizmut/Dokumen/Rizmut/Github/libreoffice-style-karasa-jaga/build/images_karasa_jaga/cmd/sc_sendviabluetooth.png"
   inkscape:export-xdpi="12"
   inkscape:export-ydpi="12">
  <sodipodi:namedview
     pagecolor="#ffffff"
     bordercolor="#666666"
     borderopacity="1"
     objecttolerance="10"
     gridtolerance="10"
     guidetolerance="10"
     inkscape:pageopacity="0"
     inkscape:pageshadow="2"
     inkscape:window-width="1366"
     inkscape:window-height="768"
     id="namedview76"
     showgrid="true"
     inkscape:zoom="3.4766083"
     inkscape:cx="65.470719"
     inkscape:cy="56.288812"
     inkscape:window-x="0"
     inkscape:window-y="0"
     inkscape:window-maximized="0"
     inkscape:current-layer="svg2408">
    <inkscape:grid
       type="xygrid"
       id="grid89"
       spacingx="8"
       spacingy="8"
       empspacing="1" />
  </sodipodi:namedview>
  <defs
     id="defs2410">
    <linearGradient
       id="linearGradient3687">
      <stop
         id="stop3689"
         style="stop-color:#ffffff;stop-opacity:1"
         offset="0" />
      <stop
         id="stop3691"
         style="stop-color:#ffffff;stop-opacity:0"
         offset="1" />
    </linearGradient>
    <linearGradient
       x1="58.650177"
       y1="122"
       x2="58.650177"
       y2="5.4252338"
       id="linearGradient3677"
       gradientUnits="userSpaceOnUse"
       gradientTransform="matrix(1.0172414,0,0,1.0172414,-1.1034483,-1.1034483)">
      <stop
         id="stop3679"
         style="stop-color:#2782e9;stop-opacity:1"
         offset="0" />
      <stop
         id="stop3681"
         style="stop-color:#193693;stop-opacity:1"
         offset="1" />
    </linearGradient>
    <linearGradient
       x1="45.447727"
       y1="92.539597"
       x2="45.447727"
       y2="7.0165396"
       id="ButtonShadow"
       gradientUnits="userSpaceOnUse"
       gradientTransform="scale(1.0058652,0.994169)">
      <stop
         id="stop3750"
         style="stop-color:#000000;stop-opacity:1"
         offset="0" />
      <stop
         id="stop3752"
         style="stop-color:#000000;stop-opacity:0.58823532"
         offset="1" />
    </linearGradient>
    <linearGradient
       id="linearGradient3737">
      <stop
         id="stop3739"
         style="stop-color:#ffffff;stop-opacity:1"
         offset="0" />
      <stop
         id="stop3741"
         style="stop-color:#ffffff;stop-opacity:0"
         offset="1" />
    </linearGradient>
    <filter
       id="filter3174"
       style="color-interpolation-filters:sRGB">
      <feGaussianBlur
         id="feGaussianBlur3176"
         stdDeviation="1.71" />
    </filter>
    <linearGradient
       x1="36.357143"
       y1="6"
       x2="36.357143"
       y2="63.893143"
       id="linearGradient3188"
       xlink:href="#linearGradient3737"
       gradientUnits="userSpaceOnUse" />
    <filter
       x="-0.192"
       y="-0.192"
       width="1.3839999"
       height="1.3839999"
       id="filter3794"
       style="color-interpolation-filters:sRGB">
      <feGaussianBlur
         id="feGaussianBlur3796"
         stdDeviation="5.28" />
    </filter>
    <linearGradient
       x1="48"
       y1="20.220806"
       x2="48"
       y2="138.66119"
       id="linearGradient3613"
       xlink:href="#linearGradient3737"
       gradientUnits="userSpaceOnUse" />
    <radialGradient
       cx="48"
       cy="90.171875"
       r="42"
       fx="48"
       fy="90.171875"
       id="radialGradient3619"
       xlink:href="#linearGradient3737"
       gradientUnits="userSpaceOnUse"
       gradientTransform="matrix(1.1573129,0,0,0.99590774,-7.5510206,0.19713193)" />
    <clipPath
       id="clipPath3613">
      <rect
         width="84"
         height="84"
         rx="6"
         ry="6"
         x="6"
         y="6"
         id="rect3615"
         style="fill:#ffffff;fill-opacity:1;fill-rule:nonzero;stroke:none" />
    </clipPath>
    <linearGradient
       x1="48"
       y1="90"
       x2="48"
       y2="5.9877172"
       id="linearGradient3617"
       xlink:href="#ButtonColor"
       gradientUnits="userSpaceOnUse" />
    <linearGradient
       x1="58.650177"
       y1="122"
       x2="58.650177"
       y2="5.4252338"
       id="ButtonColor"
       gradientUnits="userSpaceOnUse"
       gradientTransform="matrix(1.0172414,0,0,1.0172414,-1.1034483,-1.1034483)">
      <stop
         id="stop3189"
         style="stop-color:#27429c;stop-opacity:1"
         offset="0" />
      <stop
         id="stop3191"
         style="stop-color:#5072e1;stop-opacity:1"
         offset="1" />
    </linearGradient>
    <linearGradient
       id="linearGradient3374">
      <stop
         id="stop3376"
         style="stop-color:#000000;stop-opacity:1"
         offset="0" />
      <stop
         id="stop3378"
         style="stop-color:#000000;stop-opacity:0"
         offset="1" />
    </linearGradient>
    <linearGradient
       id="linearGradient8650">
      <stop
         id="stop8652"
         style="stop-color:#ffffff;stop-opacity:1"
         offset="0" />
      <stop
         id="stop8654"
         style="stop-color:#ffffff;stop-opacity:0"
         offset="1" />
    </linearGradient>
    <linearGradient
       x1="48"
       y1="90"
       x2="48"
       y2="5.9877172"
       id="linearGradient3839"
       xlink:href="#ButtonColor"
       gradientUnits="userSpaceOnUse"
       gradientTransform="translate(0,-100)" />
    <linearGradient
       x1="48.800022"
       y1="16"
       x2="59.752357"
       y2="56.874668"
       id="linearGradient2943"
       xlink:href="#linearGradient3374"
       gradientUnits="userSpaceOnUse"
       gradientTransform="matrix(-1.1647706,0,0,-1.2298822,138.55051,140.97615)" />
    <linearGradient
       x1="48.800022"
       y1="16"
       x2="59.752357"
       y2="56.874668"
       id="linearGradient2947"
       xlink:href="#linearGradient8650"
       gradientUnits="userSpaceOnUse"
       gradientTransform="matrix(1.1647706,0,0,1.2298822,-10.545321,-16.448768)" />
    <radialGradient
       cx="48"
       cy="66.450142"
       r="23"
       fx="48"
       fy="66.450142"
       id="radialGradient3683"
       xlink:href="#linearGradient3677"
       gradientUnits="userSpaceOnUse"
       gradientTransform="matrix(2.3094982,-1.3011002e-7,1.6608129e-7,2.9480005,-46.855918,-86.275163)" />
    <linearGradient
       x1="35.102802"
       y1="6.8540382"
       x2="35.102802"
       y2="34.885773"
       id="linearGradient3703"
       xlink:href="#linearGradient3687"
       gradientUnits="userSpaceOnUse"
       gradientTransform="matrix(1.8355218,0,0,1.7363043,-0.02429768,-4.5670202)" />
    <linearGradient
       x1="62.339497"
       y1="48"
       x2="62.339497"
       y2="-6.5482373"
       id="linearGradient3725"
       xlink:href="#linearGradient3687"
       gradientUnits="userSpaceOnUse"
       gradientTransform="matrix(1.8742771,0,0,1.7363043,-30.478204,-20.561072)" />
    <linearGradient
       x1="45.447727"
       y1="92.539597"
       x2="45.447727"
       y2="7.0165396"
       id="ButtonShadow-0"
       gradientUnits="userSpaceOnUse"
       gradientTransform="matrix(1.0058652,0,0,0.994169,100,0)">
      <stop
         id="stop3750-8"
         style="stop-color:#000000;stop-opacity:1"
         offset="0" />
      <stop
         id="stop3752-5"
         style="stop-color:#000000;stop-opacity:0.58823532"
         offset="1" />
    </linearGradient>
    <linearGradient
       x1="32.251034"
       y1="6.1317081"
       x2="32.251034"
       y2="90.238609"
       id="linearGradient3780"
       xlink:href="#ButtonShadow-0"
       gradientUnits="userSpaceOnUse"
       gradientTransform="matrix(1.0238095,0,0,1.0119048,-1.1428571,-98.071429)" />
    <linearGradient
       x1="32.251034"
       y1="6.1317081"
       x2="32.251034"
       y2="90.238609"
       id="linearGradient3772"
       xlink:href="#ButtonShadow-0"
       gradientUnits="userSpaceOnUse"
       gradientTransform="matrix(1.0238095,0,0,1.0119048,-1.1428571,-98.071429)" />
    <linearGradient
       x1="32.251034"
       y1="6.1317081"
       x2="32.251034"
       y2="90.238609"
       id="linearGradient3725-0"
       xlink:href="#ButtonShadow-0"
       gradientUnits="userSpaceOnUse"
       gradientTransform="matrix(1.0238095,0,0,1.0119048,-1.1428571,-98.071429)" />
    <linearGradient
       x1="32.251034"
       y1="6.1317081"
       x2="32.251034"
       y2="90.238609"
       id="linearGradient3721"
       xlink:href="#ButtonShadow-0"
       gradientUnits="userSpaceOnUse"
       gradientTransform="translate(0,-97)" />
    <linearGradient
       x1="32.251034"
       y1="6.1317081"
       x2="32.251034"
       y2="90.238609"
       id="linearGradient3122"
       xlink:href="#ButtonShadow-0"
       gradientUnits="userSpaceOnUse"
       gradientTransform="matrix(1.0238095,0,0,1.0119048,-1.1428571,-98.071429)" />
    <filter
       inkscape:collect="always"
       style="color-interpolation-filters:sRGB"
       id="filter904"
       x="-0.014633416"
       width="1.0292668"
       y="-0.010169844"
       height="1.0203397">
      <feGaussianBlur
         inkscape:collect="always"
         stdDeviation="0.53065801"
         id="feGaussianBlur906" />
    </filter>
    <filter
       inkscape:collect="always"
       style="color-interpolation-filters:sRGB"
       id="filter912"
       x="-0.014757181"
       width="1.0295144"
       y="-0.010110912"
       height="1.0202218">
      <feGaussianBlur
         inkscape:collect="always"
         stdDeviation="0.51112457"
         id="feGaussianBlur914" />
    </filter>
    <filter
       inkscape:collect="always"
       style="color-interpolation-filters:sRGB"
       id="filter928"
       x="-0.029739131"
       width="1.0594783"
       y="-0.020117647"
       height="1.0402353">
      <feGaussianBlur
         inkscape:collect="always"
         stdDeviation="0.98969349"
         id="feGaussianBlur930" />
    </filter>
    <filter
       inkscape:collect="always"
       style="color-interpolation-filters:sRGB"
       id="filter942"
       x="-0.010755777"
       width="1.0215116"
       y="-0.013569742"
       height="1.0271395">
      <feGaussianBlur
         inkscape:collect="always"
         stdDeviation="0.31905792"
         id="feGaussianBlur944" />
    </filter>
  </defs>
  <metadata
     id="metadata2413">
    <rdf:RDF>
      <cc:Work
         rdf:about="">
        <dc:format>image/svg+xml</dc:format>
        <dc:type
           rdf:resource="http://purl.org/dc/dcmitype/StillImage" />
        <dc:title></dc:title>
      </cc:Work>
    </rdf:RDF>
  </metadata>
  <g
     id="layer2"
     style="display:none"
     transform="translate(0,32)">
    <rect
       width="86"
       height="85"
       rx="6"
       ry="6"
       x="5"
       y="7"
       id="rect3745"
       style="opacity:0.9;fill:url(#ButtonShadow);fill-opacity:1;fill-rule:nonzero;stroke:none;filter:url(#filter3174)" />
  </g>
  <path
     inkscape:connector-curvature="0"
     style="display:inline;opacity:0.1;fill:#000000;fill-opacity:1;stroke:none;stroke-width:1.7363044;filter:url(#filter904)"
     id="path3732"
     d="m 64,1.3845247 c -11.486867,0 -22.919254,2.2494014 -31.036441,11.7200543 C 24.85684,22.563022 20.483872,38.27671 20.483872,64 c 0,25.723293 4.372968,41.43697 12.479687,50.89542 8.117187,9.47066 19.549574,11.72005 31.036441,11.72005 11.486861,0 22.919252,-2.24939 31.03644,-11.72005 8.10672,-9.45845 12.47969,-25.172127 12.47969,-50.89542 0,-25.723292 -4.37297,-41.436978 -12.47969,-50.895421 C 86.919252,3.6339261 75.486861,1.3845247 64,1.3845247 Z" />
  <path
     inkscape:connector-curvature="0"
     style="display:inline;opacity:0.2;fill:#000000;fill-opacity:1;stroke:none;stroke-width:1.7363044;filter:url(#filter912)"
     id="path3728"
     d="m 64,3.3378671 c -11.233061,0 -21.887706,2.167328 -29.517174,11.0689399 C 26.853359,23.308419 22.437215,38.504564 22.437215,64 c 0,25.49544 4.416144,40.69157 12.045611,49.59319 7.629468,8.90162 18.284113,11.06894 29.517174,11.06894 11.233056,0 21.887704,-2.16732 29.517174,-11.06894 C 101.14664,104.69157 105.56278,89.49544 105.56278,64 c 0,-25.495438 -4.41614,-40.691581 -12.045606,-49.593193 C 85.887704,5.5051951 75.233056,3.3378671 64,3.3378671 Z" />
  <path
     style="display:inline;opacity:0.708;fill:#000000;fill-opacity:1;stroke:none;stroke-width:1.7363044;filter:url(#filter928)"
     id="path2952"
     inkscape:connector-curvature="0"
     d="m 103.935,63.999998 c 0,50.600872 -17.890889,59.034352 -39.935,59.034352 -22.044123,0 -39.935,-8.43348 -39.935,-59.034352 0,-50.600867 17.890877,-59.0343455 39.935,-59.0343455 22.044111,0 39.935,8.4334785 39.935,59.0343455 z" />
  <path
     style="display:inline;fill:url(#radialGradient3683);fill-opacity:1;stroke:none;stroke-width:1.7363044"
     id="path2902"
     inkscape:connector-curvature="0"
     d="m 103.935,62.263694 c 0,50.600876 -17.890889,59.034346 -39.935,59.034346 -22.044123,0 -39.935,-8.43347 -39.935,-59.034346 0,-50.600867 17.890877,-59.0343459 39.935,-59.0343459 22.044111,0 39.935,8.4334789 39.935,59.0343459 z" />
  <path
     style="display:inline;opacity:0.87096773;fill:#103876;fill-opacity:1;stroke:none;stroke-width:1.7363044"
     id="path3705"
     inkscape:connector-curvature="0"
     d="m 64,3.2293481 c -22.044123,0 -39.935,8.4334799 -39.935,59.0343479 0,50.600874 17.890877,59.034344 39.935,59.034344 22.044111,0 39.935,-8.43347 39.935,-59.034344 C 103.935,11.662828 86.044111,3.2293481 64,3.2293481 Z m 0,2.550197 c 10.693959,0 19.657267,1.9526444 26.261603,9.6581929 6.604336,7.705549 11.123197,21.828747 11.123197,46.825958 0,24.997214 -4.518861,39.120414 -11.123197,46.825954 -6.604336,7.70555 -15.567644,9.65819 -26.261603,9.65819 -10.693966,0 -19.657269,-1.95264 -26.261603,-9.65819 -6.604334,-7.70554 -11.1232,-21.82874 -11.1232,-46.825954 0,-24.997211 4.518866,-39.120409 11.1232,-46.825958 C 44.342731,7.7321895 53.306035,5.7795451 64,5.7795451 Z" />
  <path
     style="display:inline;opacity:0.2;fill:url(#linearGradient2943);fill-opacity:1;stroke:none;stroke-width:1.7363044"
     id="path2908"
     inkscape:connector-curvature="0"
     d="m 64.005207,121.29804 c 22.044112,0 39.929793,-8.43347 39.929793,-59.034346 0,-20.556604 -2.9517,-34.146046 -7.935,-43.045877 3.554674,8.77046 5.60546,21.028236 5.60546,38.126347 0,50.600886 -17.885683,59.034356 -39.929795,59.034356 -13.088702,0 -24.711517,-2.98103 -31.994794,-15.98848 6.965179,17.18521 19.728955,20.908 34.324336,20.908 z" />
  <path
     style="overflow:visible;fill:url(#linearGradient3725);fill-opacity:1;fill-rule:evenodd;stroke-width:1.80397224"
     id="path3740"
     inkscape:connector-curvature="0"
     d="M 56,15.901319 V 53.405493 L 38.904701,37.568646 32.781014,43.320338 53.703617,62.702746 32.610912,82.242736 38.81965,87.915638 56,72 v 37.66175 L 86.363289,81.533624 65.780894,62.466377 86.278239,43.556708 Z m 7.909765,17.964186 10.461302,9.848783 -10.461302,9.691205 z m 0,37.425383 10.461302,9.927574 -10.461302,9.691205 z" />
  <path
     inkscape:connector-curvature="0"
     style="opacity:0.9;fill:url(#linearGradient3703);fill-opacity:1;stroke:none;stroke-width:1.78522396"
     id="path3695"
     d="m 96.85541,38.027491 a 32.447748,30.693815 0 1 1 -64.895495,0 32.447748,30.693815 0 1 1 64.895495,0 z" />
  <path
     style="display:inline;opacity:0.25;fill:#ffffff;fill-opacity:1;stroke:none;stroke-width:1.7363044;filter:url(#filter942)"
     id="path3714"
     inkscape:connector-curvature="0"
     d="m 28.405761,60.527392 c -0.0052,0.584396 0,1.139095 0,1.736304 0,24.787748 4.515782,38.483814 10.689124,45.686504 6.173342,7.2027 14.437799,9.00708 24.905115,9.00708 10.467309,0 18.731772,-1.80438 24.905115,-9.00708 6.173343,-7.20269 10.689126,-20.898758 10.689126,-45.686504 0,-0.597209 0.0056,-1.151908 0,-1.736304 C 99.383504,84.19895 94.929725,97.448444 88.905115,104.4776 82.731772,111.68029 74.467309,113.48468 64,113.48468 c -10.467316,0 -18.731773,-1.80439 -24.905115,-9.00708 C 33.070276,97.448444 28.616496,84.198951 28.405761,60.527392 Z" />
  <path
     style="display:inline;opacity:0;fill:url(#linearGradient2947);fill-opacity:1;stroke:none;stroke-width:1.7363044"
     id="path2904"
     inkscape:connector-curvature="0"
     d="m 64,3.2293481 c -22.044123,0 -39.929793,8.4334789 -39.929793,59.0343459 0,20.556603 2.951704,34.146044 7.935,43.045886 -3.554682,-8.77047 -5.605459,-21.028247 -5.605459,-38.126358 0,-50.600867 17.885671,-59.0343455 39.929792,-59.0343455 13.088691,0 24.711508,2.9810225 31.994791,15.9884685 C 91.359157,6.9521392 78.595367,3.2293481 64,3.2293481 Z" />
</svg>
